assets/icons/dashboard.svg

<svg fill="none" height="24" viewBox="0 0 24 24" width="24" xmlns="http://www.w3.org/2000/svg" xmlns:xlink="http://www.w3.org/1999/xlink"><clipPath id="a"><path d="m3 3h18v18h-18z"/></clipPath><mask id="b" height="18" maskUnits="userSpaceOnUse" width="18" x="3" y="3"><path d="m20.9776 3h-17.9776v17.9743h17.9776z" fill="#fff"/></mask><g clip-path="url(#a)"><g mask="url(#b)"><path d="m20.0648 3h-6.4256c-.686.21982-.9253.70507-.9158 1.4035.022 1.57355.0071 3.1471.0071 4.72065 0 1.07085-.0025 2.14135 0 3.21175.002.6495.4939 1.153 1.1376 1.1543 1.9949.0044 3.99.0044 5.9852 0 .2296-.0008.4535-.0714.6419-.2025.1885-.131.3326-.3163.4132-.5312.022-.0577.0125-.129.0681-.1734v-8.67066c-.0353-.46949-.4422-.87719-.9117-.91244zm-.3264 9.7329c-1.9248-.0096-3.8496-.0046-5.7745-.005-.3562 0-.4699-.1145-.4699-.4728 0-1.3397 0-2.67917 0-4.01851 0-1.33935 0-2.67885 0-4.01848 0-.34092.1215-.46452.4637-.46452h5.7919c.3497 0 .4733.12443.4733.47572 0 2.67345.0011 5.34662.0033 8.01949.0016.3082-.1348.4857-.4878.4841z" fill="#969696"/><path d="m11.2432 4.1053c-.0034-.40645-.195-.72871-.545-.94313-.1112-.06802-.2393-.10908-.36-.16217h-6.42527c-.01238.01136-.02635.02086-.04147.0282-.57152.1659-.87097.56115-.87097 1.15632v3.6676c0 .63788.48608 1.14263 1.12313 1.14429 1.99493.00497 3.98986.00497 5.98478 0 .1483.00149.2954-.02638.4328-.08192.1374-.05553.2626-.13769.3682-.24175s.1896-.22799.2472-.36461c.0575-.13661.0875-.28327.0882-.43154.0072-1.25668.0067-2.51378-.0016-3.77129zm-.7607 3.69124c0 .31023-.1265.43756-.4346.43798-.97718 0-1.95404 0-2.93064 0h-2.91359c-.31853 0-.44876-.12443-.44959-.44295-.00166-1.19889-.00166-2.39793 0-3.5971 0-.30774.13106-.44005.43714-.44046 1.94821-.00166 3.89626-.00166 5.84418 0 .3198 0 .4467.13023.4467.44585.0011 1.1989.0012 2.39779.0004 3.59668z" fill="#666"/><path d="m20.9379 15.7928c-.0682-.2348-.2105-.4412-.4058-.5883-.1953-.1472-.433-.2271-.6775-.2279-2.001-.0033-4.002-.0033-6.003 0-.2967.0011-.5809.1194-.7907.3292-.2097.2098-.3281.494-.3291.7906-.007 1.2581-.007 2.5162 0 3.7742.003.2958.1233.5783.3344.7855.2111.2073.4958.3223.7916.3198h6.0026c.2289-.001.4519-.072.6391-.2036.2564-.1721.382-.4297.4762-.7097v-4.1789c-.0378-.0191-.0282-.0589-.0378-.0909zm-.7146 3.9708c0 .3281-.1294.4562-.4562.4562-1.9355 0-3.8718 0-5.8089 0-.3405 0-.4621-.1244-.4621-.4661 0-1.1873 0-2.3746 0-3.5619 0-.3339.1195-.4529.4563-.4529h2.9131 2.9132c.3173 0 .4471.1244.4475.445 0 1.1934-.0009 2.3866-.0029 3.5797z" fill="#666"/><path d="m11.2458 11.6173c.0011-.1497-.0275-.2981-.0844-.4366-.0568-.1384-.1407-.2642-.2467-.3699s-.232-.1892-.3706-.2456-.2871-.0847-.4368-.0831c-1.99078-.0041-3.98019-.0041-5.96821 0-.64907 0-1.13806.5006-1.13848 1.1476v4.089 4.1247c-.00224.1491.02553.2972.08167.4355.05614.1382.13951.2637.24514.3691s.23137.1884.36974.2442.28654.0832.43571.0805h5.96823c.6387 0 1.143-.4852 1.1439-1.124.0049-2.7428.0052-5.4866.0008-8.2314zm-.7623 8.1373c0 .3393-.1244.4641-.4641.4645-1.93055 0-3.86118 0-5.79196 0-.34964 0-.47323-.1244-.47323-.4765 0-2.6729-.00111-5.3461-.00332-8.0196 0-.3048.13189-.4848.48816-.4831 1.92442.0095 3.84927.0045 5.77415.0045.3566 0 .4699.1141.4703.4728z" fill="#969696"/></g></g></svg>

<svg width="24" height="24" viewBox="0 0 24 24" fill="none" xmlns="http://www.w3.org/2000/svg">
<g clip-path="url(#clip0_278_2283)">
<mask id="mask0_278_2283" style="mask-type:alpha" maskUnits="userSpaceOnUse" x="3" y="3" width="18" height="18">
<path d="M20.9776 3H3V20.9743H20.9776V3Z" fill="white"/>
</mask>
<g mask="url(#mask0_278_2283)">
<path d="M20.0648 3H13.6392C12.9532 3.21982 12.7139 3.70507 12.7234 4.4035C12.7454 5.97705 12.7305 7.5506 12.7305 9.12415C12.7305 10.195 12.728 11.2655 12.7305 12.3359C12.7325 12.9854 13.2244 13.4889 13.8681 13.4902C15.863 13.4946 17.8581 13.4946 19.8533 13.4902C20.0829 13.4894 20.3068 13.4188 20.4952 13.2877C20.6837 13.1567 20.8278 12.9714 20.9084 12.7565C20.9304 12.6988 20.9209 12.6275 20.9765 12.5831V3.91244C20.9412 3.44295 20.5343 3.03525 20.0648 3ZM19.7384 12.7329C17.8136 12.7233 15.8888 12.7283 13.9639 12.7279C13.6077 12.7279 13.494 12.6134 13.494 12.2551C13.494 10.9154 13.494 9.57593 13.494 8.23659C13.494 6.89724 13.494 5.55774 13.494 4.21811C13.494 3.87719 13.6155 3.75359 13.9577 3.75359C15.8885 3.75359 17.8191 3.75359 19.7496 3.75359C20.0993 3.75359 20.2229 3.87802 20.2229 4.22931C20.2229 6.90276 20.224 9.57593 20.2262 12.2488C20.2278 12.557 20.0914 12.7345 19.7384 12.7329Z" fill="#969696"/>
<path d="M11.2432 4.1053C11.2398 3.69885 11.0482 3.37659 10.6982 3.16217C10.587 3.09415 10.4589 3.05309 10.3382 3H3.91293C3.90055 3.01136 3.88658 3.02086 3.87146 3.0282C3.29994 3.1941 3.00049 3.58935 3.00049 4.18452C3.00049 5.40691 3.00049 6.62945 3.00049 7.85212C3.00049 8.49 3.48657 8.99475 4.12362 8.99641C6.11855 9.00138 8.11348 9.00138 10.1084 8.99641C10.2567 8.9979 10.4038 8.97003 10.5412 8.91449C10.6786 8.85896 10.8038 8.7768 10.9094 8.67274C11.015 8.56868 11.099 8.44475 11.1566 8.30813C11.2141 8.17152 11.2441 8.02486 11.2448 7.87659C11.252 6.61991 11.2515 5.36281 11.2432 4.1053ZM10.4825 7.79654C10.4825 8.10677 10.356 8.2341 10.0479 8.23452C9.07072 8.23452 8.09386 8.23452 7.11726 8.23452H4.20367C3.88514 8.23452 3.75491 8.11009 3.75408 7.79157C3.75242 6.59268 3.75242 5.39364 3.75408 4.19447C3.75408 3.88673 3.88514 3.75442 4.19122 3.75401C6.13943 3.75235 8.08748 3.75235 10.0354 3.75401C10.3552 3.75401 10.4821 3.88424 10.4821 4.19986C10.4832 5.39876 10.4833 6.59765 10.4825 7.79654Z" fill="#666666"/>
<path d="M20.9379 15.7928C20.8697 15.558 20.7274 15.3516 20.5321 15.2045C20.3368 15.0573 20.0991 14.9774 19.8546 14.9766C17.8536 14.9733 15.8526 14.9733 13.8516 14.9766C13.5549 14.9777 13.2707 15.096 13.0609 15.3058C12.8512 15.5156 12.7328 15.7998 12.7318 16.0964C12.7248 17.3545 12.7248 18.6126 12.7318 19.8706C12.7348 20.1664 12.8551 20.4489 13.0662 20.6561C13.2773 20.8634 13.562 20.9784 13.8578 20.9759C15.8585 20.9759 17.8594 20.9759 19.8604 20.9759C20.0893 20.9749 20.3123 20.9039 20.4995 20.7723C20.7559 20.6002 20.8815 20.3426 20.9757 20.0626V15.8837C20.9379 15.8646 20.9475 15.8248 20.9379 15.7928ZM20.2233 19.7636C20.2233 20.0917 20.0939 20.2198 19.7671 20.2198C17.8316 20.2198 15.8953 20.2198 13.9582 20.2198C13.6177 20.2198 13.4961 20.0954 13.4961 19.7537C13.4961 18.5664 13.4961 17.3791 13.4961 16.1918C13.4961 15.8579 13.6156 15.7389 13.9524 15.7389C14.9232 15.7389 15.8942 15.7389 16.8655 15.7389C17.8369 15.7389 18.8079 15.7389 19.7787 15.7389C20.096 15.7389 20.2258 15.8633 20.2262 16.1839C20.2262 17.3773 20.2253 18.5705 20.2233 19.7636Z" fill="#666666"/>
<path d="M11.2458 11.6173C11.2469 11.4676 11.2183 11.3192 11.1614 11.1807C11.1046 11.0423 11.0207 10.9165 10.9147 10.8108C10.8087 10.7051 10.6827 10.6216 10.5441 10.5652C10.4055 10.5088 10.257 10.4805 10.1073 10.4821C8.11652 10.478 6.12711 10.478 4.13909 10.4821C3.49002 10.4821 3.00103 10.9827 3.00061 11.6297C3.00061 12.9926 3.00061 14.3556 3.00061 15.7187C3.00061 17.0935 3.00061 18.4683 3.00061 19.8434C2.99837 19.9925 3.02614 20.1406 3.08228 20.2789C3.13842 20.4171 3.22179 20.5426 3.32742 20.648C3.43305 20.7534 3.55879 20.8364 3.69716 20.8922C3.83553 20.948 3.9837 20.9754 4.13287 20.9727C6.12366 20.9727 8.11308 20.9727 10.1011 20.9727C10.7398 20.9727 11.2441 20.4875 11.245 19.8487C11.2499 17.1059 11.2502 14.3621 11.2458 11.6173ZM10.4835 19.7546C10.4835 20.0939 10.3591 20.2187 10.0194 20.2191C8.08885 20.2191 6.15822 20.2191 4.22744 20.2191C3.8778 20.2191 3.75421 20.0947 3.75421 19.7426C3.75421 17.0697 3.7531 14.3965 3.75089 11.723C3.75089 11.4182 3.88278 11.2382 4.23905 11.2399C6.16347 11.2494 8.08832 11.2444 10.0132 11.2444C10.3698 11.2444 10.4831 11.3585 10.4835 11.7172V19.7546Z" fill="#969696"/>
</g>
</g>
<defs>
<clipPath id="clip0_278_2283">
<rect width="18" height="18" fill="white" transform="translate(3 3)"/>
</clipPath>
</defs>
</svg>
